svg/symfony.svg

<svg xmlns="http://www.w3.org/2000/svg" viewBox="0 0 24 24"><path d="M12 2A10 10 0 0 0 2 12a10 10 0 0 0 10 10 10 10 0 0 0 10-10A10 10 0 0 0 12 2m4.37 3.7c1.02-.03 1.78.43 1.84 1.14.01.31-.17.91-.79.93-.47.02-.79-.27-.8-.68-.01-.16.26-.67.26-.76-.01-.27-.41-.28-.52-.27-1.5.05-1.9 2.07-2.22 3.72l-.14.87c.84.13 1.46-.03 1.8-.25.48-.31-.14-.63-.06-.99.08-.37.41-.54.67-.55.37-.01.63.37.62.76-.03.64-.86 1.52-2.53 1.48-.22 0-.41-.02-.59-.04-.61 3.1-.99 4.94-2.35 6.52-1.17 1.39-2.36 1.6-2.89 1.62-1 .04-1.67-.49-1.67-1.2-.03-.68.57-1.06.97-1.07.53-.02.9.37.91.81.02.37-.18.49-.31.56-.07.07-.22.15-.21.3 0 .07.07.22.29.21.42-.01.69-.22.89-.36.96-.8 1.34-2.21 1.83-4.77.26-1.45.45-2.38.73-3.3-.68-.51-1.1-1.15-2.01-1.38-.63-.19-1.01-.04-1.28.3-.31.41-.21.93.09 1.24 1.15 1.28 1.49 1.84 1.36 2.6-.2 1.21-1.64 2.13-3.34 1.61-1.45-.45-1.72-1.47-1.55-2.04.16-.49.55-.59.94-.47.42.13.58.63.46 1.02-.02.04-.22.41-.27.53-.09.31.33.52.62.61.65.2 1.28-.14 1.43-.67.15-.48-.15-.82-.28-.95-.89-.98-1.51-1.85-1.21-2.83.12-.37.36-.77.72-1.04.75-.55 1.57-.65 2.34-.41 1.01.27 1.49.94 2.12 1.45.35-1.02.84-2.03 1.57-2.88.66-.77 1.54-1.33 2.56-1.37"/></svg>

<?xml version="1.0" encoding="UTF-8"?><!DOCTYPE svg PUBLIC "-//W3C//DTD SVG 1.1//EN" "http://www.w3.org/Graphics/SVG/1.1/DTD/svg11.dtd"><svg xmlns="http://www.w3.org/2000/svg" xmlns:xlink="http://www.w3.org/1999/xlink" version="1.1" id="mdi-symfony" width="24" height="24" viewBox="0 0 24 24"><path d="M12,2A10,10 0 0,0 2,12A10,10 0 0,0 12,22A10,10 0 0,0 22,12A10,10 0 0,0 12,2M16.37,5.7V5.7C17.39,5.67 18.15,6.13 18.21,6.84C18.22,7.15 18.04,7.75 17.42,7.77C16.95,7.79 16.63,7.5 16.62,7.09C16.61,6.93 16.88,6.42 16.88,6.33C16.87,6.06 16.47,6.05 16.36,6.06C14.86,6.11 14.46,8.13 14.14,9.78L14,10.65C14.84,10.78 15.46,10.62 15.8,10.4C16.28,10.09 15.66,9.77 15.74,9.41C15.82,9.04 16.15,8.87 16.41,8.86C16.78,8.85 17.04,9.23 17.03,9.62C17,10.26 16.17,11.14 14.5,11.1C14.28,11.1 14.09,11.08 13.91,11.06C13.3,14.16 12.92,16 11.56,17.58C10.39,18.97 9.2,19.18 8.67,19.2C7.67,19.24 7,18.71 7,18C6.97,17.32 7.57,16.94 7.97,16.93C8.5,16.91 8.87,17.3 8.88,17.74C8.9,18.11 8.7,18.23 8.57,18.3C8.5,18.37 8.35,18.45 8.36,18.6C8.36,18.67 8.43,18.82 8.65,18.81C9.07,18.8 9.34,18.59 9.54,18.45C10.5,17.65 10.88,16.24 11.37,13.68C11.63,12.23 11.82,11.3 12.1,10.38C11.42,9.87 11,9.23 10.09,9C9.46,8.81 9.08,8.96 8.81,9.3C8.5,9.71 8.6,10.23 8.9,10.54C10.05,11.82 10.39,12.38 10.26,13.14C10.06,14.35 8.62,15.27 6.92,14.75C5.47,14.3 5.2,13.28 5.37,12.71C5.53,12.22 5.92,12.12 6.31,12.24C6.73,12.37 6.89,12.87 6.77,13.26C6.75,13.3 6.55,13.67 6.5,13.79C6.41,14.1 6.83,14.31 7.12,14.4C7.77,14.6 8.4,14.26 8.55,13.73C8.7,13.25 8.4,12.91 8.27,12.78C7.38,11.8 6.76,10.93 7.06,9.95C7.18,9.58 7.42,9.18 7.78,8.91C8.53,8.36 9.35,8.26 10.12,8.5C11.13,8.77 11.61,9.44 12.24,9.95C12.59,8.93 13.08,7.92 13.81,7.07C14.47,6.3 15.35,5.74 16.37,5.7Z" /></svg>
